libs/ui/packages/crypto-icons/src/svg/currency_linea.svg

<svg width="24" height="24" stroke-miterlimit="10" version="1.1" viewBox="0 0 24 24" xml:space="preserve" xmlns="http://www.w3.org/2000/svg" xmlns:xlink="http://www.w3.org/1999/xlink">
  <path
    d="M16.5226 19.1392L5.15799 19.1392L5.15799 7.12619L7.75823 7.12619L7.75823 16.811L16.5226 16.811L16.5226 19.1379L16.5226 19.1392Z"
    fill="#141414" fill-rule="nonzero" opacity="1" stroke="none" />
  <path
    d="M16.5211 9.45252C17.802 9.45252 18.8405 8.41076 18.8405 7.12565C18.8405 5.84054 17.802 4.79876 16.5211 4.79876C15.2401 4.79876 14.2017 5.84054 14.2017 7.12565C14.2017 8.41076 15.2401 9.45252 16.5211 9.45252Z"
    fill="#141414" fill-rule="nonzero" opacity="1" stroke="none" />
</svg>

<svg xmlns="http://www.w3.org/2000/svg" xml:space="preserve" width="24" height="24" viewBox="0 0 24 24" stroke-miterlimit="10"><path fill="#141414" d="M16.523 19.14H5.158V7.125h2.6v9.685h8.765v2.328m-.002-9.685a2.324 2.324 0 0 0 2.32-2.327 2.323 2.323 0 0 0-2.32-2.327 2.323 2.323 0 0 0-2.32 2.327 2.323 2.323 0 0 0 2.32 2.327"/></svg>
